static/cards/FrenchDeck/default/card_hearts_04.svg

<svg width="219" height="304" viewBox="0 0 219 304" fill="none" xmlns="http://www.w3.org/2000/svg">
<g filter="url(#filter0_d_18_662)">
<g clip-path="url(#clip0_18_662)">
<rect x="8" y="4" width="203" height="288" rx="10" fill="white"/>
<path d="M28.4634 42.3784V38.3145H17.9331C16.3716 38.3145 15.3306 37.4937 15.3306 36.1724C15.3306 35.4316 15.5708 34.731 16.2715 33.4497C19.1343 28.3848 20.936 25.502 25.4805 18.6953C26.6616 16.9536 27.5825 16.353 28.9639 16.353C30.7856 16.353 31.8066 17.394 31.8066 19.2559V35.2515H33.8887C35.0098 35.2515 35.6704 35.812 35.6704 36.793C35.6704 37.7539 35.0298 38.3145 33.8887 38.3145H31.8066V42.3784C31.8066 43.5396 31.2061 44.2002 30.125 44.2002C29.064 44.2002 28.4634 43.5396 28.4634 42.3784ZM18.6938 35.2515H28.4634V19.7563H28.2832C24.8799 24.7812 21.3164 30.5068 18.6938 35.0513V35.2515Z" fill="#BC1E24"/>
<path d="M21.7347 53.0006C24.4518 53.042 25.5069 55.3984 25.8537 56.5094C25.8888 56.6218 26.1122 56.6217 26.1472 56.5093C26.4938 55.3983 27.5482 53.042 30.2653 53.0006C33.8229 52.9462 36.4995 56.9292 34.0587 60.9289C31.8832 64.4939 26.0821 71 26 71C25.9165 71 20.1169 64.4943 17.9413 60.9289C15.5005 56.9291 18.177 52.9462 21.7347 53.0006Z" fill="#BC1E24"/>
<path d="M190.537 253.622L190.537 257.686L201.067 257.686C202.628 257.686 203.669 258.506 203.669 259.828C203.669 260.568 203.429 261.269 202.729 262.55C199.866 267.615 198.064 270.498 193.52 277.305C192.338 279.046 191.417 279.647 190.036 279.647C188.214 279.647 187.193 278.606 187.193 276.744L187.193 260.749L185.111 260.749C183.99 260.749 183.33 260.188 183.33 259.207C183.33 258.246 183.97 257.686 185.111 257.686L187.193 257.686L187.193 253.622C187.193 252.46 187.794 251.8 188.875 251.8C189.936 251.8 190.537 252.46 190.537 253.622ZM200.306 260.749L190.537 260.749L190.537 276.244L190.717 276.244C194.12 271.219 197.684 265.493 200.306 260.949L200.306 260.749Z" fill="#BC1E24"/>
<path d="M197.265 242.999C194.548 242.958 193.493 240.602 193.146 239.491C193.111 239.378 192.888 239.378 192.853 239.491C192.506 240.602 191.452 242.958 188.735 242.999C185.177 243.054 182.501 239.071 184.941 235.071C187.117 231.506 192.918 225 193 225C193.083 225 198.883 231.506 201.059 235.071C203.499 239.071 200.823 243.054 197.265 242.999Z" fill="#BC1E24"/>
<path d="M55.2206 30.2514C61.7688 30.3516 64.3116 36.0461 65.1475 38.731C65.2321 39.0026 65.7704 39.0025 65.8549 38.7309C66.6901 36.0459 69.2313 30.3516 75.7794 30.2514C84.3533 30.1199 90.8038 39.7455 84.9215 49.4115C79.6786 58.0269 65.6978 73.75 65.5 73.75C65.2989 73.7499 51.3218 58.0278 46.0785 49.4115C40.1963 39.7454 46.6467 30.1199 55.2206 30.2514Z" fill="#BC1E24"/>
<path d="M55.2206 265.749C61.7688 265.648 64.3116 259.954 65.1475 257.269C65.2321 256.997 65.7704 256.997 65.8549 257.269C66.6901 259.954 69.2313 265.648 75.7794 265.749C84.3533 265.88 90.8038 256.255 84.9215 246.589C79.6786 237.973 65.6978 222.25 65.5 222.25C65.2989 222.25 51.3218 237.972 46.0785 246.589C40.1963 256.255 46.6467 265.88 55.2206 265.749Z" fill="#BC1E24"/>
<path d="M143.221 30.2514C149.769 30.3516 152.312 36.0461 153.148 38.731C153.232 39.0026 153.77 39.0025 153.855 38.7309C154.69 36.0459 157.231 30.3516 163.779 30.2514C172.353 30.1199 178.804 39.7455 172.922 49.4115C167.679 58.0269 153.698 73.75 153.5 73.75C153.299 73.7499 139.322 58.0278 134.079 49.4115C128.196 39.7454 134.647 30.1199 143.221 30.2514Z" fill="#BC1E24"/>
<path d="M143.221 265.749C149.769 265.648 152.312 259.954 153.148 257.269C153.232 256.997 153.77 256.997 153.855 257.269C154.69 259.954 157.231 265.648 163.779 265.749C172.353 265.88 178.804 256.255 172.922 246.589C167.679 237.973 153.698 222.25 153.5 222.25C153.299 222.25 139.322 237.972 134.079 246.589C128.196 256.255 134.647 265.88 143.221 265.749Z" fill="#BC1E24"/>
</g>
</g>
<defs>
<filter id="filter0_d_18_662" x="0" y="0" width="219" height="304" filterUnits="userSpaceOnUse" color-interpolation-filters="sRGB">
<feFlood flood-opacity="0" result="BackgroundImageFix"/>
<feColorMatrix in="SourceAlpha" type="matrix" values="0 0 0 0 0 0 0 0 0 0 0 0 0 0 0 0 0 0 127 0" result="hardAlpha"/>
<feOffset dy="4"/>
<feGaussianBlur stdDeviation="4"/>
<feComposite in2="hardAlpha" operator="out"/>
<feColorMatrix type="matrix" values="0 0 0 0 0.614771 0 0 0 0 0.70094 0 0 0 0 0.806257 0 0 0 1 0"/>
<feBlend mode="normal" in2="BackgroundImageFix" result="effect1_dropShadow_18_662"/>
<feBlend mode="normal" in="SourceGraphic" in2="effect1_dropShadow_18_662" result="shape"/>
</filter>
<clipPath id="clip0_18_662">
<rect x="8" y="4" width="203" height="288" rx="10" fill="white"/>
</clipPath>
</defs>
</svg>

<svg xmlns="http://www.w3.org/2000/svg" width="219" height="304" fill="none" viewBox="0 0 219 304"><g filter="url(#a)"><g clip-path="url(#b)"><rect width="203" height="288" x="8" y="4" fill="#fff" rx="10"/><path fill="#bc1e24" d="M28.463 42.378v-4.063h-10.53c-1.561 0-2.602-.821-2.602-2.143 0-.74.24-1.441.94-2.722 2.863-5.065 4.665-7.948 9.21-14.755 1.18-1.741 2.101-2.342 3.483-2.342 1.822 0 2.843 1.041 2.843 2.903v15.996h2.082c1.12 0 1.781.56 1.781 1.541 0 .96-.64 1.522-1.781 1.522h-2.082v4.063c0 1.162-.6 1.822-1.682 1.822-1.061 0-1.662-.66-1.662-1.822m-9.77-7.126h9.77V19.755h-.18c-3.403 5.025-6.967 10.75-9.59 15.295zM21.735 53c2.717.042 3.772 2.398 4.119 3.51.035.112.258.112.293 0 .347-1.112 1.401-3.468 4.118-3.51 3.558-.054 6.234 3.93 3.794 7.929C31.883 64.494 26.082 71 26 71c-.084 0-5.883-6.506-8.059-10.071-2.44-4 .236-7.983 3.794-7.928M190.537 253.622v4.064h10.53c1.561 0 2.602.82 2.602 2.142 0 .74-.24 1.441-.94 2.722-2.863 5.065-4.665 7.948-9.209 14.755-1.182 1.741-2.103 2.342-3.484 2.342-1.822 0-2.843-1.041-2.843-2.903v-15.995h-2.082c-1.121 0-1.781-.561-1.781-1.542 0-.961.64-1.521 1.781-1.521h2.082v-4.064c0-1.162.601-1.822 1.682-1.822 1.061 0 1.662.66 1.662 1.822m9.769 7.127h-9.769v15.495h.18c3.403-5.025 6.967-10.751 9.589-15.295zM197.265 242.999c-2.717-.041-3.772-2.397-4.119-3.508-.035-.113-.258-.113-.293 0-.347 1.111-1.401 3.467-4.118 3.508-3.558.055-6.234-3.928-3.794-7.928C187.117 231.506 192.918 225 193 225c.083 0 5.883 6.506 8.059 10.071 2.44 4-.236 7.983-3.794 7.928M55.22 30.251c6.549.1 9.092 5.795 9.927 8.48.085.272.623.271.708 0 .835-2.685 3.376-8.38 9.924-8.48 8.574-.131 15.025 9.494 9.142 19.16C79.68 58.027 65.699 73.75 65.5 73.75c-.201 0-14.178-15.722-19.421-24.339-5.883-9.666.568-19.291 9.142-19.16M55.22 265.749c6.549-.101 9.092-5.795 9.927-8.48.085-.272.623-.272.708 0 .835 2.685 3.376 8.379 9.924 8.48 8.574.131 15.025-9.494 9.142-19.16-5.242-8.616-19.223-24.339-19.421-24.339-.201 0-14.178 15.722-19.421 24.339-5.883 9.666.568 19.291 9.142 19.16M143.221 30.251c6.548.1 9.091 5.795 9.927 8.48.084.272.622.271.707 0 .835-2.685 3.376-8.38 9.924-8.48 8.574-.131 15.025 9.494 9.143 19.16-5.243 8.616-19.224 24.339-19.422 24.339-.201 0-14.178-15.722-19.421-24.339-5.883-9.666.568-19.291 9.142-19.16M143.221 265.749c6.548-.101 9.091-5.795 9.927-8.48.084-.272.622-.272.707 0 .835 2.685 3.376 8.379 9.924 8.48 8.574.131 15.025-9.494 9.143-19.16-5.243-8.616-19.224-24.339-19.422-24.339-.201 0-14.178 15.722-19.421 24.339-5.883 9.666.568 19.291 9.142 19.16"/></g></g><defs><clipPath id="b"><rect width="203" height="288" x="8" y="4" fill="#fff" rx="10"/></clipPath><filter id="a" width="219" height="304" x="0" y="0" color-interpolation-filters="sRGB" filterUnits="userSpaceOnUse"><feFlood flood-opacity="0" result="BackgroundImageFix"/><feColorMatrix in="SourceAlpha" result="hardAlpha" values="0 0 0 0 0 0 0 0 0 0 0 0 0 0 0 0 0 0 127 0"/><feOffset dy="4"/><feGaussianBlur stdDeviation="4"/><feComposite in2="hardAlpha" operator="out"/><feColorMatrix values="0 0 0 0 0.614771 0 0 0 0 0.70094 0 0 0 0 0.806257 0 0 0 1 0"/><feBlend in2="BackgroundImageFix" result="effect1_dropShadow_18_662"/><feBlend in="SourceGraphic" in2="effect1_dropShadow_18_662" result="shape"/></filter></defs></svg>
